%
(teststukje multidepth)
(T2 D=2 CR=0 - ZMIN=-0.3 - flat end mill)
N10 G90 G94
N15 G17
N20 G21
N25 M9
N30 G28

(Proef climb 2)
N35 T2 M6
N40 S1 M3
N45 G54
N50 G0 X134.988 Y33.921
N55 G43 Z16.2
N60 Z3.2
N65 G1 Z2.7 F1000
N70 Y28 Z2.182 F1500
N75 G2 X129.988 Y23 Z1.495 I-5
N80 G1 X115.188 Z0.2
N85 Y25.15
N90 X55.188
N95 Y23
N100 X40.388
N105 G2 X35.388 Y28 J5
N110 G1 Y67.6
N115 G2 X40.388 Y72.6 I5
N120 G1 X55.188
N125 Y70.45
N130 X115.188
N135 Y72.6
N140 X129.988
N145 G2 X134.988 Y67.6 J-5
N150 G1 Y28
N155 G2 X129.988 Y23 I-5
N160 G1 X115.188
N165 Y25.15
N170 X107.338
N175 X94.904 Z-0.3
N180 X55.188
N185 Y23
N190 X40.388
N195 G2 X35.388 Y28 J5
N200 G1 Y67.6
N205 G2 X40.388 Y72.6 I5
N210 G1 X55.188
N215 Y70.45
N220 X115.188
N225 Y72.6
N230 X129.988
N235 G2 X134.988 Y67.6 J-5
N240 G1 Y28
N245 G2 X129.988 Y23 I-5
N250 G1 X115.188
N255 Y25.15
N260 X84.904
N265 G0 Z16.2
N270 G28
N275 M30
%
