%
(Base snijden)
(T99 D=10 CR=0 TAPER=10deg - ZMIN=0 - chamfer mill)
N10 G90 G94
N15 G17
N20 G21
N25 M9
N30 G28

(Snijden contour met scherpe hoeken)
N35 T99 M6
N40 S1 M3
N45 G54
N50 G0 X-23.702 Y83.072
N55 G43 Z51.2
N60 G1 Z50 F3000
N65 X-23.709 Y83.075 Z49.108 F1000
N70 X-23.732 Y83.083 Z48.215
N75 X-23.769 Y83.097 Z47.324
N80 X-23.822 Y83.116 Z46.433
N85 X-23.889 Y83.141 Z45.543
N90 X-23.971 Y83.171 Z44.655
N95 X-24.068 Y83.206 Z43.769
N100 X-24.18 Y83.247 Z42.884
N105 X-24.306 Y83.294 Z42.002
N110 X-24.448 Y83.346 Z41.122
N115 X-24.604 Y83.403 Z40.245
N120 X-24.775 Y83.466 Z39.372
N125 X-24.96 Y83.534 Z38.501
N130 X-25.16 Y83.607 Z37.635
N135 X-25.375 Y83.686 Z36.772
N140 X-25.603 Y83.77 Z35.913
N145 X-25.847 Y83.859 Z35.059
N150 X-26.104 Y83.953 Z34.21
N155 X-26.376 Y84.053 Z33.366
N160 X-26.662 Y84.158 Z32.527
N165 X-26.961 Y84.268 Z31.693
N170 X-27.275 Y84.383 Z30.866
N175 X-27.603 Y84.503 Z30.044
N180 X-27.944 Y84.628 Z29.229
N185 X-28.299 Y84.759 Z28.421
N190 X-28.667 Y84.894 Z27.619
N195 X-29.049 Y85.034 Z26.825
N200 X-29.444 Y85.179 Z26.038
N205 X-29.852 Y85.328 Z25.258
N210 X-30.273 Y85.483 Z24.486
N215 X-30.707 Y85.642 Z23.723
N220 X-31.154 Y85.806 Z22.968
N225 X-31.613 Y85.974 Z22.221
N230 X-32.085 Y86.148 Z21.484
N235 X-32.569 Y86.325 Z20.755
N240 X-33.065 Y86.507 Z20.036
N245 X-33.573 Y86.694 Z19.326
N250 X-34.093 Y86.884 Z18.627
N255 X-34.624 Y87.079 Z17.937
N260 X-35.167 Y87.278 Z17.257
N265 X-35.722 Y87.482 Z16.588
N270 X-36.287 Y87.689 Z15.929
N275 X-36.863 Y87.901 Z15.281
N280 X-37.451 Y88.116 Z14.645
N285 X-38.048 Y88.335 Z14.019
N290 X-38.656 Y88.559 Z13.405
N295 X-39.275 Y88.785 Z12.803
N300 X-39.903 Y89.016 Z12.213
N305 X-40.541 Y89.25 Z11.634
N310 X-41.189 Y89.488 Z11.068
N315 X-41.846 Y89.729 Z10.514
N320 X-42.512 Y89.973 Z9.973
N325 X-43.187 Y90.221 Z9.444
N330 X-43.871 Y90.472 Z8.929
N335 X-44.564 Y90.726 Z8.427
N340 X-45.265 Y90.983 Z7.937
N345 X-45.973 Y91.243 Z7.462
N350 X-46.69 Y91.506 Z6.999
N355 X-47.415 Y91.772 Z6.551
N360 X-48.146 Y92.04 Z6.116
N365 X-48.885 Y92.311 Z5.695
N370 X-49.631 Y92.585 Z5.289
N375 X-50.384 Y92.861 Z4.896
N380 X-51.143 Y93.14 Z4.518
N385 X-51.908 Y93.42 Z4.155
N390 X-52.679 Y93.703 Z3.806
N395 X-53.456 Y93.988 Z3.472
N400 X-54.239 Y94.275 Z3.153
N405 X-55.026 Y94.564 Z2.848
N410 X-55.819 Y94.855 Z2.559
N415 X-56.616 Y95.148 Z2.284
N420 X-57.418 Y95.442 Z2.025
N425 X-58.224 Y95.738 Z1.782
N430 X-59.034 Y96.035 Z1.553
N435 X-59.848 Y96.333 Z1.34
N440 X-60.665 Y96.633 Z1.143
N445 X-61.485 Y96.934 Z0.961
N450 X-62.308 Y97.236 Z0.794
N455 X-63.134 Y97.539 Z0.644
N460 X-63.962 Y97.843 Z0.509
N465 X-64.793 Y98.147 Z0.39
N470 X-65.625 Y98.453 Z0.286
N475 X-66.459 Y98.759 Z0.199
N480 X-67.294 Y99.065 Z0.127
N485 X-68.13 Y99.372 Z0.072
N490 X-68.967 Y99.679 Z0.032
N495 X-69.805 Y99.986 Z0.008
N500 X-70.643 Y100.294 Z0
N505 X-71.581 Y100.638 F3000
N510 G3 X-75 Y101.25 I-3.444 J-9.388
N515 G2 X-91.815 Y102.399 I-0.388 J117.983 F9000
N520 G1 X-93.865 Y102.741
N525 G2 X-100.926 Y104.371 I11.04 J63.95
N530 X-109.27 Y107.816 I11.317 J39.236
N535 X-115.047 Y111.878 I16.906 J30.179
N540 X-119.573 Y117.719 I14.129 J15.624
N545 X-122.353 Y123.745 I43.974 J23.938
N550 X-126.515 Y136.602 I100.592 J39.664
N555 X-128.36 Y144.485 I136.39 J36.079
N560 X-131.873 Y164.637 I368.995 J74.719
N565 X-134.858 Y191.6 I367.045 J54.281
N570 X-136.422 Y220.098 I640.474 J49.43
N575 G1 X-136.553 Y223.835
N580 X-136.671 Y227.572
N585 X-136.777 Y231.309
N590 X-136.871 Y235.047
N595 X-136.952 Y238.785
N600 X-137.021 Y242.523
N605 X-137.077 Y246.261
N610 X-137.121 Y250
N615 X-134.976
N620 X-135.028 Y255
N625 X-135.066 Y260
N630 X-135.091 Y265
N635 X-135.101 Y270
N640 X-135.098 Y275
N645 X-135.091 Y280.709
N650 X-135.068 Y286.418
N655 X-135.03 Y292.127
N660 X-134.976 Y297.836
N665 X-134.908 Y303.545
N670 X-134.824 Y309.254
N675 X-134.725 Y314.962
N680 X-134.61 Y320.67
N685 X-134.48 Y326.378
N690 X-134.335 Y332.085
N695 X-134.175 Y337.792
N700 X-133.999 Y343.499
N705 X-133.808 Y349.205
N710 X-133.602 Y354.91
N715 X-132.874 Y374.521
N720 X-132.162 Y394.133
N725 X-131.465 Y413.746
N730 X-130.783 Y433.359
N735 X-130.117 Y452.973
N740 X-129.466 Y472.587
N745 X-128.831 Y492.202
N750 X-128.211 Y511.817
N755 X-127.606 Y531.432
N760 X-127.017 Y551.049
N765 X-126.443 Y570.665
N770 X-125.885 Y590.282
N775 X-125.342 Y609.9
N780 X-124.814 Y629.517
N785 X-124.302 Y649.136
N790 X-123.805 Y668.754
N795 X-123.324 Y688.373
N800 X-122.858 Y707.993
N805 X-122.407 Y727.613
N810 X-121.972 Y747.233
N815 X-121.552 Y766.853
N820 X-121.148 Y786.474
N825 X-120.759 Y806.095
N830 X-120.385 Y825.716
N835 X-120.027 Y845.338
N840 X-119.684 Y864.96
N845 X-119.439 Y880.113
N850 X-119.209 Y895.266
N855 X-118.995 Y910.419
N860 X-118.796 Y925.572
N865 X-118.612 Y940.726
N870 X-118.444 Y955.879
N875 X-118.291 Y971.033
N880 X-118.153 Y986.187
N885 X-118.031 Y1001.341
N890 X-117.924 Y1016.496
N895 X-117.832 Y1031.65
N900 X-117.755 Y1046.804
N905 X-117.694 Y1061.959
N910 X-117.648 Y1077.113
N915 X-117.617 Y1092.268
N920 X-117.602 Y1107.423
N925 Y1122.577
N930 X-117.617 Y1137.732
N935 X-117.648 Y1152.887
N940 X-117.694 Y1168.041
N945 X-117.755 Y1183.196
N950 X-117.832 Y1198.35
N955 X-117.924 Y1213.504
N960 X-118.031 Y1228.659
N965 X-118.153 Y1243.813
N970 X-118.291 Y1258.967
N975 X-118.444 Y1274.121
N980 X-118.612 Y1289.274
N985 X-118.796 Y1304.428
N990 X-118.995 Y1319.581
N995 X-119.209 Y1334.734
N1000 X-119.439 Y1349.887
N1005 X-119.684 Y1365.04
N1010 X-119.959 Y1383.294
N1015 X-120.248 Y1401.549
N1020 X-120.553 Y1419.803
N1025 X-120.874 Y1438.056
N1030 X-121.209 Y1456.31
N1035 X-121.559 Y1474.563
N1040 X-121.925 Y1492.816
N1045 X-122.305 Y1511.068
N1050 X-122.701 Y1529.32
N1055 X-123.112 Y1547.572
N1060 X-123.538 Y1565.824
N1065 X-123.98 Y1584.075
N1070 X-124.436 Y1602.326
N1075 X-124.908 Y1620.576
N1080 X-125.394 Y1638.826
N1085 X-125.896 Y1657.076
N1090 X-126.413 Y1675.325
N1095 X-126.945 Y1693.574
N1100 X-127.493 Y1711.822
N1105 X-128.055 Y1730.07
N1110 X-128.169 Y1733.95
N1115 X-128.27 Y1737.83
N1120 X-128.358 Y1741.711
N1125 X-128.432 Y1745.592
N1130 X-128.492 Y1749.474
N1135 X-128.54 Y1753.355
N1140 X-128.573 Y1757.237
N1145 X-128.593 Y1761.118
N1150 X-128.6 Y1765
N1155 G2 X-128.017 Y1799 I887.142 J1.783
N1160 G1 X-130.173
N1165 X-130.069 Y1801.93
N1170 X-129.956 Y1804.9
N1175 X-129.701 Y1810.88
N1180 X-129.429 Y1816.438
N1185 G2 X-127.89 Y1838.351 I530.406 J-26.238
N1190 X-123.775 Y1864.638 I222.449 J-21.354
N1195 X-117.6 Y1883.933 I94.236 J-19.526
N1200 X-115.158 Y1888.573 I39.837 J-17.998
N1205 X-113.003 Y1891.491 I18.513 J-11.421
N1210 X-105.214 Y1896.426 I12.167 J-10.588
N1215 X-100.262 Y1897.43 I8.827 J-30.828
N1220 G1 X-100 Y1895.3
N1225 G2 X-91.904 Y1895.955 I13.076 J-111.28
N1230 G1 X-88.671 Y1896.119
N1235 X-85.439 Y1896.272
N1240 X-82.206 Y1896.416
N1245 X-78.972 Y1896.55
N1250 X-77.448 Y1896.579
N1255 X-75.924 Y1896.594
N1260 X-74.4
N1265 X-72.876 Y1896.58
N1270 X-71.353 Y1896.551
N1275 X-69.829 Y1896.509
N1280 X-68.306 Y1896.451
N1285 X-66.784 Y1896.38
N1290 X-65.262 Y1896.293
N1295 G2 X-62.952 Y1896.188 I-2.194 J-73.715
N1300 X-53.266 Y1895.645 I-11.15 J-285.409
N1305 X-50 Y1895.3 I-8.807 J-98.931
N1310 G1 X-49.738 Y1897.43
N1315 G2 X-44.787 Y1896.436 I-4.371 J-34.599
N1320 X-41.041 Y1894.841 I-4.981 J-16.895
N1325 G1 X-40.626 Y1894.587
N1330 X-40.218 Y1894.321
N1335 X-39.818 Y1894.043
N1340 X-39.426 Y1893.754
N1345 X-39.043 Y1893.453
N1350 X-38.668 Y1893.142
N1355 X-38.303 Y1892.82
N1360 X-37.947 Y1892.488
N1365 X-37.601 Y1892.146
N1370 X-37.264 Y1891.793
N1375 X-36.938 Y1891.432
N1380 X-36.622 Y1891.061
N1385 X-36.318 Y1890.681
N1390 X-36.024 Y1890.293
N1395 X-35.741 Y1889.896
N1400 G2 X-33.413 Y1886.008 I-21.661 J-15.612
N1405 X-30.821 Y1880.128 I-52.49 J-26.654
N1410 X-26.483 Y1865.839 I-89.172 J-34.874
N1415 X-23.017 Y1846.371 I-231.779 J-51.303
N1420 X-21.263 Y1827.799 I-301.644 J-37.859
N1425 X-20.222 Y1809.17 I-658.919 J-46.153
N1430 G1 X-20.013 Y1804.11
N1435 X-19.827 Y1799
N1440 X-21.978
N1445 X-21.807 Y1793.61
N1450 X-21.672 Y1788.58
N1455 G2 X-21.399 Y1765 I-834.56 J-21.431
N1460 G1 X-21.406 Y1761.118
N1465 X-21.426 Y1757.237
N1470 X-21.46 Y1753.355
N1475 X-21.507 Y1749.474
N1480 X-21.568 Y1745.592
N1485 X-21.642 Y1741.711
N1490 X-21.73 Y1737.83
N1495 X-21.831 Y1733.95
N1500 X-21.945 Y1730.07
N1505 X-22.508 Y1711.822
N1510 X-23.055 Y1693.574
N1515 X-23.587 Y1675.325
N1520 X-24.104 Y1657.076
N1525 X-24.606 Y1638.826
N1530 X-25.093 Y1620.576
N1535 X-25.564 Y1602.326
N1540 X-26.021 Y1584.075
N1545 X-26.462 Y1565.824
N1550 X-26.888 Y1547.572
N1555 X-27.299 Y1529.32
N1560 X-27.695 Y1511.068
N1565 X-28.075 Y1492.816
N1570 X-28.441 Y1474.563
N1575 X-28.791 Y1456.31
N1580 X-29.127 Y1438.056
N1585 X-29.447 Y1419.803
N1590 X-29.752 Y1401.549
N1595 X-30.042 Y1383.294
N1600 X-30.316 Y1365.04
N1605 X-30.561 Y1349.887
N1610 X-30.791 Y1334.734
N1615 X-31.005 Y1319.581
N1620 X-31.204 Y1304.428
N1625 X-31.388 Y1289.274
N1630 X-31.556 Y1274.121
N1635 X-31.709 Y1258.967
N1640 X-31.847 Y1243.813
N1645 X-31.969 Y1228.659
N1650 X-32.077 Y1213.504
N1655 X-32.168 Y1198.35
N1660 X-32.245 Y1183.196
N1665 X-32.306 Y1168.041
N1670 X-32.352 Y1152.887
N1675 X-32.383 Y1137.732
N1680 X-32.398 Y1122.577
N1685 Y1107.423
N1690 X-32.383 Y1092.268
N1695 X-32.352 Y1077.113
N1700 X-32.306 Y1061.959
N1705 X-32.245 Y1046.804
N1710 X-32.168 Y1031.65
N1715 X-32.077 Y1016.496
N1720 X-31.969 Y1001.341
N1725 X-31.847 Y986.187
N1730 X-31.709 Y971.033
N1735 X-31.556 Y955.879
N1740 X-31.388 Y940.726
N1745 X-31.204 Y925.572
N1750 X-31.005 Y910.419
N1755 X-30.791 Y895.266
N1760 X-30.561 Y880.113
N1765 X-30.316 Y864.96
N1770 X-29.973 Y845.338
N1775 X-29.615 Y825.716
N1780 X-29.242 Y806.095
N1785 X-28.852 Y786.474
N1790 X-28.448 Y766.853
N1795 X-28.028 Y747.233
N1800 X-27.593 Y727.613
N1805 X-27.142 Y707.993
N1810 X-26.676 Y688.373
N1815 X-26.195 Y668.754
N1820 X-25.698 Y649.136
N1825 X-25.186 Y629.517
N1830 X-24.658 Y609.9
N1835 X-24.115 Y590.282
N1840 X-23.557 Y570.665
N1845 X-22.983 Y551.049
N1850 X-22.394 Y531.432
N1855 X-21.789 Y511.817
N1860 X-21.169 Y492.202
N1865 X-20.534 Y472.587
N1870 X-19.883 Y452.973
N1875 X-19.217 Y433.359
N1880 X-18.535 Y413.746
N1885 X-17.838 Y394.133
N1890 X-17.126 Y374.521
N1895 X-16.398 Y354.91
N1900 X-16.192 Y349.205
N1905 X-16.001 Y343.499
N1910 X-15.825 Y337.792
N1915 X-15.664 Y332.085
N1920 X-15.519 Y326.378
N1925 X-15.389 Y320.67
N1930 X-15.275 Y314.962
N1935 X-15.175 Y309.254
N1940 X-15.091 Y303.545
N1945 X-15.022 Y297.836
N1950 X-14.969 Y292.127
N1955 X-14.931 Y286.418
N1960 X-14.908 Y280.709
N1965 X-14.9 Y275
N1970 X-14.898 Y270
N1975 X-14.91 Y265
N1980 X-14.934 Y260
N1985 X-14.972 Y255
N1990 X-15.023 Y250
N1995 X-12.873
N2000 X-12.914 Y246.939
N2005 X-12.96 Y243.854
N2010 X-13.075 Y237.629
N2015 X-13.221 Y231.361
N2020 X-13.4 Y225.084
N2025 X-13.616 Y218.837
N2030 G2 X-15.536 Y186.629 I-663.486 J23.409
N2035 X-21.457 Y145.351 I-384.314 J34.058
N2040 X-25.252 Y130.441 I-145.765 J29.17
N2045 X-28.622 Y121.376 I-96.175 J30.592
N2050 X-30.983 Y116.728 I-41.677 J18.246
N2055 X-33.569 Y113.245 I-18.324 J10.902
N2060 X-39.232 Y108.722 I-19.98 J19.209
N2065 X-47.074 Y105.016 I-19.284 J30.655
N2070 X-55.317 Y102.894 I-18.203 J53.647
N2075 X-69.124 Y101.387 I-17.482 J96.197
N2080 X-84.99 Y101.637 I-5.937 J127.053
N2085 G1 X-85.269 Y101.659 Z0.008
N2090 X-85.548 Y101.68 Z0.031
N2095 X-85.825 Y101.702 Z0.071
N2100 X-86.099 Y101.723 Z0.125
N2105 X-86.37 Y101.745 Z0.195
N2110 X-86.636 Y101.765 Z0.281
N2115 X-86.898 Y101.786 Z0.381
N2120 X-87.153 Y101.806 Z0.495
N2125 X-87.401 Y101.825 Z0.624
N2130 X-87.642 Y101.844 Z0.766
N2135 X-87.874 Y101.862 Z0.922
N2140 X-88.098 Y101.879 Z1.091
N2145 X-88.312 Y101.896 Z1.272
N2150 X-88.515 Y101.912 Z1.464
N2155 X-88.707 Y101.927 Z1.668
N2160 X-88.887 Y101.941 Z1.883
N2165 X-89.055 Y101.954 Z2.107
N2170 X-89.211 Y101.966 Z2.34
N2175 X-89.353 Y101.977 Z2.581
N2180 X-89.481 Y101.987 Z2.831
N2185 X-89.595 Y101.996 Z3.087
N2190 X-89.695 Y102.004 Z3.349
N2195 X-89.78 Y102.011 Z3.616
N2200 X-89.85 Y102.016 Z3.887
N2205 X-89.904 Y102.021 Z4.162
N2210 X-89.943 Y102.024 Z4.44
N2215 X-89.967 Y102.026 Z4.72
N2220 X-89.975 Y102.027 Z5
N2225 G0 Z51.2
N2230 X126.298 Y83.072
N2235 G1 Z50 F3000
N2240 X126.291 Y83.075 Z49.108 F1000
N2245 X126.268 Y83.083 Z48.215
N2250 X126.231 Y83.097 Z47.324
N2255 X126.178 Y83.116 Z46.433
N2260 X126.111 Y83.141 Z45.543
N2265 X126.029 Y83.171 Z44.655
N2270 X125.932 Y83.206 Z43.769
N2275 X125.82 Y83.247 Z42.884
N2280 X125.694 Y83.294 Z42.002
N2285 X125.552 Y83.346 Z41.122
N2290 X125.396 Y83.403 Z40.245
N2295 X125.225 Y83.466 Z39.372
N2300 X125.04 Y83.534 Z38.501
N2305 X124.84 Y83.607 Z37.635
N2310 X124.625 Y83.686 Z36.772
N2315 X124.397 Y83.77 Z35.913
N2320 X124.153 Y83.859 Z35.059
N2325 X123.896 Y83.953 Z34.21
N2330 X123.624 Y84.053 Z33.366
N2335 X123.338 Y84.158 Z32.527
N2340 X123.039 Y84.268 Z31.693
N2345 X122.725 Y84.383 Z30.866
N2350 X122.397 Y84.503 Z30.044
N2355 X122.056 Y84.628 Z29.229
N2360 X121.701 Y84.759 Z28.421
N2365 X121.333 Y84.894 Z27.619
N2370 X120.951 Y85.034 Z26.825
N2375 X120.556 Y85.179 Z26.038
N2380 X120.148 Y85.328 Z25.258
N2385 X119.727 Y85.483 Z24.486
N2390 X119.293 Y85.642 Z23.723
N2395 X118.846 Y85.806 Z22.968
N2400 X118.387 Y85.974 Z22.221
N2405 X117.915 Y86.148 Z21.484
N2410 X117.431 Y86.325 Z20.755
N2415 X116.935 Y86.507 Z20.036
N2420 X116.427 Y86.694 Z19.326
N2425 X115.907 Y86.884 Z18.627
N2430 X115.376 Y87.079 Z17.937
N2435 X114.833 Y87.278 Z17.257
N2440 X114.278 Y87.482 Z16.588
N2445 X113.713 Y87.689 Z15.929
N2450 X113.137 Y87.901 Z15.281
N2455 X112.549 Y88.116 Z14.645
N2460 X111.952 Y88.335 Z14.019
N2465 X111.344 Y88.559 Z13.405
N2470 X110.725 Y88.785 Z12.803
N2475 X110.097 Y89.016 Z12.213
N2480 X109.459 Y89.25 Z11.634
N2485 X108.811 Y89.488 Z11.068
N2490 X108.154 Y89.729 Z10.514
N2495 X107.488 Y89.973 Z9.973
N2500 X106.813 Y90.221 Z9.444
N2505 X106.129 Y90.472 Z8.929
N2510 X105.436 Y90.726 Z8.427
N2515 X104.735 Y90.983 Z7.937
N2520 X104.027 Y91.243 Z7.462
N2525 X103.31 Y91.506 Z6.999
N2530 X102.585 Y91.772 Z6.551
N2535 X101.854 Y92.04 Z6.116
N2540 X101.115 Y92.311 Z5.695
N2545 X100.369 Y92.585 Z5.289
N2550 X99.616 Y92.861 Z4.896
N2555 X98.857 Y93.14 Z4.518
N2560 X98.092 Y93.42 Z4.155
N2565 X97.321 Y93.703 Z3.806
N2570 X96.544 Y93.988 Z3.472
N2575 X95.761 Y94.275 Z3.153
N2580 X94.974 Y94.564 Z2.848
N2585 X94.181 Y94.855 Z2.559
N2590 X93.384 Y95.148 Z2.284
N2595 X92.582 Y95.442 Z2.025
N2600 X91.776 Y95.738 Z1.782
N2605 X90.966 Y96.035 Z1.553
N2610 X90.152 Y96.333 Z1.34
N2615 X89.335 Y96.633 Z1.143
N2620 X88.515 Y96.934 Z0.961
N2625 X87.692 Y97.236 Z0.794
N2630 X86.866 Y97.539 Z0.644
N2635 X86.038 Y97.843 Z0.509
N2640 X85.207 Y98.147 Z0.39
N2645 X84.375 Y98.453 Z0.286
N2650 X83.541 Y98.759 Z0.199
N2655 X82.706 Y99.065 Z0.127
N2660 X81.87 Y99.372 Z0.072
N2665 X81.033 Y99.679 Z0.032
N2670 X80.195 Y99.986 Z0.008
N2675 X79.357 Y100.294 Z0
N2680 X78.419 Y100.638 F3000
N2685 G3 X75 Y101.25 I-3.444 J-9.388
N2690 G2 X58.185 Y102.399 I-0.388 J117.983 F9000
N2695 G1 X56.135 Y102.741
N2700 G2 X49.074 Y104.371 I11.033 J63.917
N2705 X40.73 Y107.816 I11.315 J39.232
N2710 X34.953 Y111.878 I16.897 J30.165
N2715 X30.427 Y117.719 I14.123 J15.62
N2720 X27.647 Y123.745 I43.897 J23.902
N2725 X23.485 Y136.602 I100.496 J39.635
N2730 X21.64 Y144.485 I137.395 J36.321
N2735 X18.127 Y164.637 I369.967 J74.88
N2740 X15.142 Y191.6 I367.174 J54.294
N2745 X13.578 Y220.098 I641.511 J49.491
N2750 G1 X13.447 Y223.835
N2755 X13.329 Y227.572
N2760 X13.223 Y231.309
N2765 X13.129 Y235.047
N2770 X13.048 Y238.785
N2775 X12.979 Y242.523
N2780 X12.923 Y246.261
N2785 X12.879 Y250
N2790 X15.024
N2795 X14.972 Y255
N2800 X14.934 Y260
N2805 X14.909 Y265
N2810 X14.899 Y270
N2815 X14.902 Y275
N2820 X14.909 Y280.709
N2825 X14.932 Y286.418
N2830 X14.97 Y292.127
N2835 X15.023 Y297.836
N2840 X15.092 Y303.545
N2845 X15.176 Y309.254
N2850 X15.275 Y314.962
N2855 X15.39 Y320.67
N2860 X15.52 Y326.378
N2865 X15.665 Y332.085
N2870 X15.825 Y337.792
N2875 X16.001 Y343.499
N2880 X16.192 Y349.205
N2885 X16.398 Y354.91
N2890 X17.126 Y374.521
N2895 X17.838 Y394.133
N2900 X18.535 Y413.746
N2905 X19.217 Y433.359
N2910 X19.883 Y452.973
N2915 X20.534 Y472.587
N2920 X21.169 Y492.202
N2925 X21.789 Y511.817
N2930 X22.394 Y531.432
N2935 X22.983 Y551.049
N2940 X23.557 Y570.665
N2945 X24.115 Y590.282
N2950 X24.658 Y609.9
N2955 X25.186 Y629.517
N2960 X25.698 Y649.136
N2965 X26.195 Y668.754
N2970 X26.676 Y688.373
N2975 X27.142 Y707.993
N2980 X27.593 Y727.613
N2985 X28.028 Y747.233
N2990 X28.448 Y766.853
N2995 X28.852 Y786.474
N3000 X29.242 Y806.095
N3005 X29.615 Y825.716
N3010 X29.973 Y845.338
N3015 X30.316 Y864.96
N3020 X30.561 Y880.113
N3025 X30.791 Y895.266
N3030 X31.005 Y910.419
N3035 X31.204 Y925.572
N3040 X31.388 Y940.726
N3045 X31.556 Y955.879
N3050 X31.709 Y971.033
N3055 X31.847 Y986.187
N3060 X31.969 Y1001.341
N3065 X32.077 Y1016.496
N3070 X32.168 Y1031.65
N3075 X32.245 Y1046.804
N3080 X32.306 Y1061.959
N3085 X32.352 Y1077.113
N3090 X32.383 Y1092.268
N3095 X32.398 Y1107.423
N3100 Y1122.577
N3105 X32.383 Y1137.732
N3110 X32.352 Y1152.887
N3115 X32.306 Y1168.041
N3120 X32.245 Y1183.196
N3125 X32.168 Y1198.35
N3130 X32.077 Y1213.504
N3135 X31.969 Y1228.659
N3140 X31.847 Y1243.813
N3145 X31.709 Y1258.967
N3150 X31.556 Y1274.121
N3155 X31.388 Y1289.274
N3160 X31.204 Y1304.428
N3165 X31.005 Y1319.581
N3170 X30.791 Y1334.734
N3175 X30.561 Y1349.887
N3180 X30.316 Y1365.04
N3185 X30.042 Y1383.294
N3190 X29.752 Y1401.549
N3195 X29.447 Y1419.803
N3200 X29.127 Y1438.056
N3205 X28.791 Y1456.31
N3210 X28.441 Y1474.563
N3215 X28.075 Y1492.816
N3220 X27.695 Y1511.068
N3225 X27.299 Y1529.32
N3230 X26.888 Y1547.572
N3235 X26.462 Y1565.824
N3240 X26.021 Y1584.075
N3245 X25.564 Y1602.326
N3250 X25.093 Y1620.576
N3255 X24.606 Y1638.826
N3260 X24.104 Y1657.076
N3265 X23.587 Y1675.325
N3270 X23.055 Y1693.574
N3275 X22.508 Y1711.822
N3280 X21.945 Y1730.07
N3285 X21.831 Y1733.95
N3290 X21.73 Y1737.83
N3295 X21.642 Y1741.711
N3300 X21.568 Y1745.592
N3305 X21.508 Y1749.474
N3310 X21.461 Y1753.355
N3315 X21.427 Y1757.237
N3320 X21.407 Y1761.118
N3325 X21.4 Y1765
N3330 G2 X21.984 Y1799 I887.138 J1.778
N3335 G1 X19.827
N3340 X19.931 Y1801.93
N3345 X20.044 Y1804.9
N3350 X20.299 Y1810.88
N3355 X20.571 Y1816.439
N3360 G2 X22.11 Y1838.351 I529.617 J-26.187
N3365 X25.89 Y1863.058 I220.977 J-21.163
N3370 X31.464 Y1881.763 I98.484 J-19.165
N3375 X34.237 Y1887.563 I50.615 J-20.642
N3380 X36.994 Y1891.493 I21.374 J-12.059
N3385 X40.885 Y1894.752 I12.575 J-11.064
N3390 X45.509 Y1896.627 I8.76 J-14.963
N3395 X49.738 Y1897.43 I8.534 J-33.398
N3400 G1 X50 Y1895.3
N3405 G2 X58.096 Y1895.955 I13.076 J-111.28
N3410 G1 X61.329 Y1896.119
N3415 X64.561 Y1896.272
N3420 X67.794 Y1896.416
N3425 X71.028 Y1896.55
N3430 X72.552 Y1896.579
N3435 X74.076 Y1896.594
N3440 X75.6
N3445 X77.124 Y1896.58
N3450 X78.647 Y1896.551
N3455 X80.171 Y1896.509
N3460 X81.694 Y1896.451
N3465 X83.216 Y1896.38
N3470 X84.738 Y1896.293
N3475 G2 X87.048 Y1896.188 I-2.194 J-73.714
N3480 X96.734 Y1895.645 I-11.15 J-285.408
N3485 X100 Y1895.3 I-8.807 J-98.933
N3490 G1 X100.262 Y1897.43
N3495 G2 X105.214 Y1896.436 I-4.375 J-34.624
N3500 X108.959 Y1894.841 I-4.986 J-16.904
N3505 G1 X109.374 Y1894.587
N3510 X109.782 Y1894.321
N3515 X110.182 Y1894.043
N3520 X110.574 Y1893.754
N3525 X110.957 Y1893.453
N3530 X111.332 Y1893.142
N3535 X111.697 Y1892.82
N3540 X112.053 Y1892.488
N3545 X112.4 Y1892.145
N3550 X112.736 Y1891.793
N3555 X113.062 Y1891.432
N3560 X113.378 Y1891.061
N3565 X113.683 Y1890.681
N3570 X113.976 Y1890.292
N3575 X114.259 Y1889.896
N3580 G2 X115.91 Y1887.29 I-19.629 J-14.265
N3585 X119.176 Y1880.127 I-48.789 J-26.568
N3590 X123.517 Y1865.839 I-88.364 J-34.651
N3595 X126.982 Y1846.371 I-231.317 J-51.223
N3600 X128.737 Y1827.799 I-300.595 J-37.761
N3605 X129.778 Y1809.17 I-660.161 J-46.246
N3610 G1 X129.987 Y1804.11
N3615 X130.173 Y1799
N3620 X128.022
N3625 X128.193 Y1793.61
N3630 X128.328 Y1788.58
N3635 G2 X128.601 Y1765 I-833.9 J-21.436
N3640 G1 X128.594 Y1761.118
N3645 X128.574 Y1757.237
N3650 X128.54 Y1753.355
N3655 X128.493 Y1749.474
N3660 X128.432 Y1745.592
N3665 X128.358 Y1741.711
N3670 X128.271 Y1737.83
N3675 X128.17 Y1733.95
N3680 X128.055 Y1730.07
N3685 X127.493 Y1711.822
N3690 X126.945 Y1693.574
N3695 X126.413 Y1675.325
N3700 X125.896 Y1657.076
N3705 X125.394 Y1638.826
N3710 X124.908 Y1620.576
N3715 X124.436 Y1602.326
N3720 X123.98 Y1584.075
N3725 X123.538 Y1565.824
N3730 X123.112 Y1547.572
N3735 X122.701 Y1529.32
N3740 X122.305 Y1511.068
N3745 X121.925 Y1492.816
N3750 X121.559 Y1474.563
N3755 X121.209 Y1456.31
N3760 X120.874 Y1438.056
N3765 X120.553 Y1419.803
N3770 X120.248 Y1401.549
N3775 X119.959 Y1383.294
N3780 X119.684 Y1365.04
N3785 X119.439 Y1349.887
N3790 X119.209 Y1334.734
N3795 X118.995 Y1319.581
N3800 X118.796 Y1304.428
N3805 X118.612 Y1289.274
N3810 X118.444 Y1274.121
N3815 X118.291 Y1258.967
N3820 X118.153 Y1243.813
N3825 X118.031 Y1228.659
N3830 X117.924 Y1213.504
N3835 X117.832 Y1198.35
N3840 X117.755 Y1183.196
N3845 X117.694 Y1168.041
N3850 X117.648 Y1152.887
N3855 X117.617 Y1137.732
N3860 X117.602 Y1122.577
N3865 Y1107.423
N3870 X117.617 Y1092.268
N3875 X117.648 Y1077.113
N3880 X117.694 Y1061.959
N3885 X117.755 Y1046.804
N3890 X117.832 Y1031.65
N3895 X117.924 Y1016.496
N3900 X118.031 Y1001.341
N3905 X118.153 Y986.187
N3910 X118.291 Y971.033
N3915 X118.444 Y955.879
N3920 X118.612 Y940.726
N3925 X118.796 Y925.572
N3930 X118.995 Y910.419
N3935 X119.209 Y895.266
N3940 X119.439 Y880.113
N3945 X119.684 Y864.96
N3950 X120.027 Y845.338
N3955 X120.385 Y825.716
N3960 X120.759 Y806.095
N3965 X121.148 Y786.474
N3970 X121.552 Y766.853
N3975 X121.972 Y747.233
N3980 X122.407 Y727.613
N3985 X122.858 Y707.993
N3990 X123.324 Y688.373
N3995 X123.805 Y668.754
N4000 X124.302 Y649.136
N4005 X124.814 Y629.517
N4010 X125.342 Y609.9
N4015 X125.885 Y590.282
N4020 X126.443 Y570.665
N4025 X127.017 Y551.049
N4030 X127.606 Y531.432
N4035 X128.211 Y511.817
N4040 X128.831 Y492.202
N4045 X129.466 Y472.587
N4050 X130.117 Y452.973
N4055 X130.783 Y433.359
N4060 X131.465 Y413.746
N4065 X132.162 Y394.133
N4070 X132.874 Y374.521
N4075 X133.602 Y354.91
N4080 X133.808 Y349.205
N4085 X133.999 Y343.499
N4090 X134.175 Y337.792
N4095 X134.336 Y332.085
N4100 X134.481 Y326.378
N4105 X134.611 Y320.67
N4110 X134.725 Y314.962
N4115 X134.825 Y309.254
N4120 X134.909 Y303.545
N4125 X134.978 Y297.836
N4130 X135.031 Y292.127
N4135 X135.069 Y286.418
N4140 X135.092 Y280.709
N4145 X135.1 Y275
N4150 X135.102 Y270
N4155 X135.091 Y265
N4160 X135.066 Y260
N4165 X135.028 Y255
N4170 X134.977 Y250
N4175 X137.126
N4180 X137.086 Y246.939
N4185 X137.039 Y243.854
N4190 X136.925 Y237.629
N4195 X136.779 Y231.361
N4200 X136.6 Y225.084
N4205 X136.384 Y218.837
N4210 G2 X134.463 Y186.629 I-662.192 J23.327
N4215 X131.86 Y164.489 I-384.777 J34.021
N4220 X128.547 Y145.351 I-404.604 J60.186
N4225 X125.072 Y131.477 I-151.144 J30.491
N4230 X121.379 Y121.376 I-97.95 J30.08
N4235 X119.017 Y116.728 I-42.087 J18.467
N4240 X116.431 Y113.245 I-18.302 J10.884
N4245 X110.767 Y108.722 I-19.977 J19.206
N4250 X102.926 Y105.016 I-19.278 J30.641
N4255 X94.683 Y102.894 I-18.2 J53.635
N4260 X80.876 Y101.387 I-17.481 J96.193
N4265 X65.01 Y101.637 I-5.937 J127.052
N4270 G1 X64.731 Y101.659 Z0.008
N4275 X64.452 Y101.68 Z0.031
N4280 X64.175 Y101.702 Z0.071
N4285 X63.901 Y101.723 Z0.125
N4290 X63.63 Y101.745 Z0.195
N4295 X63.364 Y101.765 Z0.281
N4300 X63.102 Y101.786 Z0.381
N4305 X62.847 Y101.806 Z0.495
N4310 X62.599 Y101.825 Z0.624
N4315 X62.358 Y101.844 Z0.766
N4320 X62.126 Y101.862 Z0.922
N4325 X61.902 Y101.879 Z1.091
N4330 X61.688 Y101.896 Z1.272
N4335 X61.485 Y101.912 Z1.464
N4340 X61.293 Y101.927 Z1.668
N4345 X61.113 Y101.941 Z1.883
N4350 X60.945 Y101.954 Z2.107
N4355 X60.789 Y101.966 Z2.34
N4360 X60.647 Y101.977 Z2.581
N4365 X60.519 Y101.987 Z2.831
N4370 X60.405 Y101.996 Z3.087
N4375 X60.305 Y102.004 Z3.349
N4380 X60.22 Y102.011 Z3.616
N4385 X60.15 Y102.016 Z3.887
N4390 X60.096 Y102.021 Z4.162
N4395 X60.057 Y102.024 Z4.44
N4400 X60.033 Y102.026 Z4.72
N4405 X60.025 Y102.027 Z5
N4410 G0 Z51.2
N4415 G28
N4420 M30
%
