%
(Header)
(Generated by gcodetools from Inkscape.)
(Using default header. To add your own header create file "header" in the output dir.)
M3
(Header end.)
G21 (All units in mm)

(Pass at depth -10.0)
(Start cutting path id: path4479-4)
(Change tool to Default tool)

G00 Z2.000000
G00 X5.791938 Y19.388137

G01 Z-2.000000 F800.0(Penetrate)
G03 X4.328323 Y18.781859 Z-2.000000 I0.000035 J-2.069879 F400.000000
G03 X3.722092 Y17.318225 Z-2.000000 I1.463654 J-1.463606
G01 X3.722092 Y15.910695 Z-2.000000
G03 X4.328341 Y14.447148 Z-2.000000 I2.069778 J0.000033
G03 X5.791938 Y13.840909 Z-2.000000 I1.463626 J1.463676
G02 X6.225259 Y13.661403 Z-2.000000 I-0.000027 J-0.612831
G02 X6.404749 Y13.228100 Z-2.000000 I-0.433367 J-0.433343
G01 X6.404749 Y11.820570 Z-2.000000
(Footer)
M5
G00 X0.0000 Y0.0000
M2
(Using default footer. To add your own footer create file "footer" in the output dir.)
(end)
%