%
(Header)
(Generated by gcodetools from Inkscape.)
(Using default header. To add your own header create file "header" in the output dir.)
M3
(Header end.)
G21 (All units in mm)

(Pass at depth -10.0)
(Start cutting path id: path4479-4)
(Change tool to Default tool)

G00 Z2.000000
G00 X5.791938 Y19.388137

G01 Z-2.000000 F800.0(Penetrate)
G03 X4.328323 Y18.781859 Z-2.000000 I0.000035 J-2.069879 F400.000000
G03 X3.722092 Y17.318225 Z-2.000000 I1.463654 J-1.463606
G01 X3.722092 Y15.910695 Z-2.000000
G03 X4.328341 Y14.447148 Z-2.000000 I2.069778 J0.000033
G03 X5.791938 Y13.840909 Z-2.000000 I1.463626 J1.463676
G02 X6.225259 Y13.661403 Z-2.000000 I-0.000027 J-0.612831
G02 X6.404749 Y13.228100 Z-2.000000 I-0.433367 J-0.433343
G01 X6.404749 Y11.820570 Z-2.000000
G02 X6.225279 Y11.387227 Z-2.000000 I-0.612847 J-0.000024
G02 X5.791938 Y11.207695 Z-2.000000 I-0.433388 J0.433331
G02 X5.358561 Y11.387202 Z-2.000000 I-0.000016 J0.612859
G02 X5.179066 Y11.820570 Z-2.000000 I0.433354 J0.433345
G01 X5.179066 Y12.524304 Z-2.000000
G01 X3.722092 Y12.524304 Z-2.000000
G01 X3.722026 Y11.820570 Z-2.000000
G03 X4.328280 Y10.356913 Z-2.000000 I2.069879 J-0.000031
G03 X5.791938 Y9.750661 Z-2.000000 I1.463623 J1.463625
G03 X7.255554 Y10.356936 Z-2.000000 I-0.000029 J2.069875
G03 X7.861783 Y11.820570 Z-2.000000 I-1.463643 J1.463598
G01 X7.861783 Y13.228100 Z-2.000000
G03 X7.255540 Y14.691686 Z-2.000000 I-2.069888 J-0.000033
G03 X5.791938 Y15.297950 Z-2.000000 I-1.463631 J-1.463604
G02 X5.358624 Y15.477429 Z-2.000000 I0.000029 J0.612880
G02 X5.179126 Y15.910695 Z-2.000000 I0.433248 J0.433306
G01 X5.179126 Y17.318225 Z-2.000000
G02 X5.358598 Y17.751570 Z-2.000000 I0.612847 J0.000024
G02 X5.791938 Y17.931100 Z-2.000000 I0.433386 J-0.433332
G02 X6.225315 Y17.751594 Z-2.000000 I0.000017 J-0.612857
G02 X6.404810 Y17.318225 Z-2.000000 I-0.433355 J-0.433345
G01 X6.404731 Y16.614491 Z-2.000000
G01 X7.861768 Y16.614491 Z-2.000000
G01 X7.861847 Y17.318225 Z-2.000000
G03 X7.255593 Y18.781882 Z-2.000000 I-2.069886 J0.000029
G03 X5.791938 Y19.388137 Z-2.000000 I-1.463627 J-1.463623
G01 X5.791938 Y19.388137 Z-2.000000
G00 Z2.000000

(Change tool to Default tool)

G00 Z2.000000
G00 X17.089606 Y19.388137

G01 Z-2.000000 F800.0(Penetrate)
G03 X15.626002 Y18.781893 Z-2.000000 I0.000000 J-2.069849 F400.000000
G03 X15.019757 Y17.318288 Z-2.000000 I1.463604 J-1.463605
G01 X15.019757 Y11.820570 Z-2.000000
G03 X15.625996 Y10.356930 Z-2.000000 I2.069951 J-0.000000
G03 X17.089606 Y9.750661 Z-2.000000 I1.463610 J1.463538
G03 X18.553254 Y10.356924 Z-2.000000 I-0.000000 J2.069911
G03 X19.159516 Y11.820570 Z-2.000000 I-1.463646 J1.463646
G01 X19.159516 Y17.318288 Z-2.000000
G03 X18.553247 Y18.781899 Z-2.000000 I-2.069806 J-0.000000
G03 X17.089606 Y19.388137 Z-2.000000 I-1.463641 J-1.463715
G01 X17.089606 Y19.388137 Z-2.000000
G00 Z2.000000

(Change tool to Default tool)

G00 Z2.000000
G00 X21.277163 Y19.355629

G01 Z-2.000000 F800.0(Penetrate)
G01 X21.277163 Y9.783217 Z-2.000000 F400.000000
G01 X22.734137 Y9.783217 Z-2.000000
G01 X22.734140 Y13.840903 Z-2.000000
G01 X23.347012 Y13.840903 Z-2.000000
G03 X24.810661 Y14.447166 Z-2.000000 I0.000000 J2.069912
G03 X25.416924 Y15.910816 Z-2.000000 I-1.463649 J1.463649
G01 X25.416921 Y17.285783 Z-2.000000
G03 X24.810654 Y18.749390 Z-2.000000 I-2.069801 J-0.000000
G03 X23.347012 Y19.355629 Z-2.000000 I-1.463642 J-1.463715
G01 X21.277163 Y19.355629 Z-2.000000
G00 Z2.000000

(Change tool to Default tool)

G00 Z2.000000
G00 X9.370860 Y19.355629

G01 Z-2.000000 F800.0(Penetrate)
G01 X9.370860 Y17.898591 Z-2.000000 F400.000000
G01 X10.712253 Y17.898591 Z-2.000000
G01 X10.712253 Y9.783217 Z-2.000000
G01 X12.169290 Y9.783217 Z-2.000000
G01 X12.169290 Y17.898598 Z-2.000000
G01 X13.510684 Y17.898598 Z-2.000000
G01 X13.510684 Y19.355635 Z-2.000000
G01 X9.370860 Y19.355629 Z-2.000000
G00 Z2.000000

(Change tool to Default tool)

G00 Z2.000000
G00 X17.089606 Y17.931094

G01 Z-2.000000 F800.0(Penetrate)
G02 X17.522963 Y17.751615 Z-2.000000 I-0.000000 J-0.612915 F400.000000
G02 X17.702478 Y17.318282 Z-2.000000 I-0.433254 J-0.433333
G01 X17.702478 Y11.820564 Z-2.000000
G02 X17.522974 Y11.387198 Z-2.000000 I-0.612877 J-0.000000
G02 X17.089606 Y11.207689 Z-2.000000 I-0.433368 J0.433361
G02 X16.656241 Y11.387193 Z-2.000000 I0.000000 J0.612875
G02 X16.476731 Y11.820564 Z-2.000000 I0.433365 J0.433371
G01 X16.476731 Y17.318282 Z-2.000000
G02 X16.656242 Y17.751609 Z-2.000000 I0.612767 J-0.000000
G02 X17.089606 Y17.931094 Z-2.000000 I0.433365 J-0.433435
G01 X17.089606 Y17.931094 Z-2.000000
G00 Z2.000000

(Change tool to Default tool)

G00 Z2.000000
G00 X23.347012 Y17.898586

G01 Z-2.000000 F800.0(Penetrate)
G02 X23.780370 Y17.719106 Z-2.000000 I-0.000000 J-0.612917 F400.000000
G02 X23.959884 Y17.285777 Z-2.000000 I-0.433250 J-0.433329
G01 X23.959887 Y15.910809 Z-2.000000
G02 X23.780383 Y15.477446 Z-2.000000 I-0.612870 J0.000000
G02 X23.347012 Y15.297937 Z-2.000000 I-0.433371 J0.433368
G01 X22.734140 Y15.297937 Z-2.000000
G01 X22.734134 Y17.898586 Z-2.000000
G01 X23.347012 Y17.898586 Z-2.000000
G00 Z2.000000

(End cutting path id: path4479-4)

(Start cutting path id: path110)
(Change tool to Default tool)

G00 Z2.000000
G00 X9.138723 Y1.458300

G01 Z-2.000000 F800.0(Penetrate)
G01 X1.458421 Y9.138598 Z-2.000000 F400.000000
G01 X1.458421 Y20.000197 Z-2.000000
G01 X9.138723 Y27.680496 Z-2.000000
G01 X20.000208 Y27.680496 Z-2.000000
G01 X27.680506 Y20.000197 Z-2.000000
G01 X27.680506 Y9.138598 Z-2.000000
G01 X20.000208 Y1.458300 Z-2.000000
G01 X9.138723 Y1.458300 Z-2.000000
G00 Z2.000000

(End cutting path id: path110)

(Start cutting path id: path108)
(Change tool to Default tool)

G00 Z2.000000
G00 X9.098524 Y0.001383

G01 Z-2.000000 F800.0(Penetrate)
G02 X8.578002 Y0.104925 Z-2.000000 I0.000000 J1.360136 F400.000000
G02 X8.136685 Y0.399730 Z-2.000000 I0.520895 J1.257496
G01 X0.399740 Y8.136678 Z-2.000000
G02 X0.104836 Y8.578027 Z-2.000000 I0.961987 J0.961987
G02 X0.001393 Y9.098056 Z-2.000000 I1.255420 J0.520029
G01 X0.001393 Y20.040285 Z-2.000000
G02 X0.104879 Y20.560407 Z-2.000000 I1.358818 J0.000000
G02 X0.399740 Y21.001661 Z-2.000000 I1.256943 J-0.520789
G01 X8.136685 Y28.739066 Z-2.000000
G02 X8.577917 Y29.033558 Z-2.000000 I0.962251 J-0.963930
G02 X9.098524 Y29.137070 Z-2.000000 I0.520607 J-1.257427
G01 X20.040407 Y29.137070 Z-2.000000
G02 X20.560770 Y29.033642 Z-2.000000 I0.000000 J-1.360732
G02 X21.001789 Y28.739066 Z-2.000000 I-0.519454 J-1.255110
G01 X28.739190 Y21.001661 Z-2.000000
G02 X29.033628 Y20.560532 Z-2.000000 I-0.963820 J-0.962144
G02 X29.137080 Y20.040285 Z-2.000000 I-1.256401 J-0.520247
G01 X29.137080 Y9.098056 Z-2.000000
G02 X29.033655 Y8.577890 Z-2.000000 I-1.359778 J0.000000
G02 X28.739190 Y8.136678 Z-2.000000 I-1.258501 J0.521055
G01 X21.001789 Y0.399730 Z-2.000000
G02 X20.560677 Y0.104834 Z-2.000000 I-0.960354 J0.959157
G02 X20.040407 Y0.001383 Z-2.000000 I-0.520270 J1.256536
G01 X9.098524 Y0.001383 Z-2.000000
G00 Z2.000000

(End cutting path id: path108)


(Pass at depth -20.0)

(Footer)
M5
G00 X0.0000 Y0.0000
M2
(Using default footer. To add your own footer create file "footer" in the output dir.)
(end)
%